X:1
T:Title
%%score 1 { 2 | 3 }
L:1/8
Q:1/4=100
M:4/4
K:Bb
V:1 treble nm="Grand Piano, Soprano"
V:2 bass nm="Choir Pad, Fulton Street, 87.87.87.87.87"
V:3 bass 
V:1
 [Fd]2 [Fc]2 [FB][FA][EG][EB] | [DF]4 [B,D]4 | [CE]2 [A,C]2 [DF][CE][B,D][A,C] | [B,D]6 z2 | %4
w: By~C.~W.~Newton * * * * *||||
 [Fd]2 [Fc]2 [FB][FA][EG][EB] | [DF]4 [B,D]4 | [DB]2 [DB]2 [DA][DG][DF][_D=E] | D6 z2 | %8
w: ||||
 [EF]2 [EA]2 [Ec]F[DB][Ec] | [Fd]4 [DB]4 | [EB]2 [EG]2 E[EF][EG]E | [DF]6 z2 | %12
w: ||||
 [Fd]2 [_Af]2 [Ge][Gd][Gc][GB] | [FB]4 [FA]4 | [=EA]2 [Ed]2 [Ec][EB][EA][EG] | F6 z2 | %16
w: ||||
 [DF]2 [DF]2 [B,D][DF][DB][Fd] | [_Af]4 [Ge]4 | [Fd]2 [DF]2 [CE][DF][EG][EA] | [DB]8 |] %20
w: ||||
V:2
 B,2 A,2 B,B,B,B, | B,4 B,4 | F,2 F,2 F,F,F,F, | F,6 z2 | B,2 A,2 B,B,B,B, | B,4 B,4 | %6
 G,2 G,2 CB,A,G, | F,6 z2 | A,2 C2 A,A,B,B, | B,4 B,4 | G,2 B,2 G,A,B,G, | B,6 z2 | %12
 B,2 =B,2 CB,C[K:treble]C | D4 C4 | C2 B,2[K:bass] A,G,CB, | A,6 z2 | B,2 B,2 B,B,B,B, | B,4 B,4 | %18
 B,2 B,2 F,F,F,F, | F,8 |] %20
V:3
 B,,2 B,,2 D,D,E,G, | z4 B,,4 | z8 | B,,6 z2 | B,,2 C,2 D,D,E,G, | z4 B,,4 | z4 D,D,D,A,, | %7
 D,6 z2 | F,2 F,2 F,F,B,,B,, | B,,4 B,,4 | E,2 E,2 E,E,E,E, | B,,6 z2 | B,,2 B,,2 C,D,E,=E, | %13
 F,4 F,4 | C,2 C,2 C,C,C,C, | F,6 z2 | B,,2 B,,2 B,,B,,B,,B,, | D,4 E,4 | F,2 F,2 z4 | B,,8 |] %20

